assets/img/join-logo.svg

<svg width="102" height="122" viewBox="0 0 102 122" fill="none" xmlns="http://www.w3.org/2000/svg">
<rect width="102" height="122" fill="#F5F5F5"/>
<g id="Summary user" clip-path="url(#clip0_0_1)">
<rect width="1440" height="1024" transform="translate(-65 -64)" fill="#F6F7F8"/>
<g id="Header" filter="url(#filter0_d_0_1)">
<rect width="1440" height="96" transform="translate(-65 -64)" fill="white"/>
</g>
<g id="Frame 3" filter="url(#filter1_d_0_1)">
<rect width="232" height="1024" transform="translate(-65 -64)" fill="#2A3647"/>
<g id="Capa 2">
<g id="Capa 1">
<path id="Vector" d="M72.655 0H50.4972V25.4923H72.655V0Z" fill="white"/>
<path id="Vector_2" d="M50.4971 46.2251H72.655V82.1779C72.7562 90.8292 70.2941 99.3153 65.5815 106.557C60.9284 113.594 51.9459 121.966 35.3275 121.966C17.2263 121.966 6.67577 113.406 0.98291 108.715L14.9594 91.4743C20.5159 96.0112 25.8679 99.7435 35.4128 99.7435C42.6396 99.7435 45.5202 96.7988 47.2076 94.2307C49.5015 90.6637 50.6881 86.4923 50.6165 82.2464L50.4971 46.2251Z" fill="white"/>
<path id="Vector_3" d="M39.1967 30.1318H17.0388V52.3884H39.1967V30.1318Z" fill="#29ABE2"/>
<path id="Vector_4" d="M84.2622 111.522C84.2622 116.265 81.859 118.815 78.5012 118.815C75.1434 118.815 72.9447 115.785 72.9447 111.762C72.9447 107.739 75.2116 104.554 78.6887 104.554C82.1658 104.554 84.2622 107.687 84.2622 111.522ZM75.5184 111.711C75.5184 114.57 76.6604 116.675 78.6205 116.675C80.5806 116.675 81.6885 114.45 81.6885 111.539C81.6885 108.988 80.6659 106.592 78.6205 106.592C76.5752 106.592 75.5184 108.903 75.5184 111.711Z" fill="white"/>
<path id="Vector_5" d="M88.6597 104.76V118.593H86.2053V104.76H88.6597Z" fill="white"/>
<path id="Vector_6" d="M91.3187 118.593V104.76H94.0458L96.9775 110.461C97.7322 111.952 98.4036 113.483 98.9887 115.049C98.8353 113.337 98.7672 111.368 98.7672 109.177V104.76H101.017V118.593H98.4774L95.5117 112.772C94.7265 111.243 94.0266 109.671 93.4152 108.064C93.4152 109.776 93.5345 111.711 93.5345 114.09V118.576L91.3187 118.593Z" fill="white"/>
</g>
</g>
</g>
</g>
<defs>
<filter id="filter0_d_0_1" x="-69" y="-64" width="1448" height="104" filterUnits="userSpaceOnUse" color-interpolation-filters="sRGB">
<feFlood flood-opacity="0" result="BackgroundImageFix"/>
<feColorMatrix in="SourceAlpha" type="matrix" values="0 0 0 0 0 0 0 0 0 0 0 0 0 0 0 0 0 0 127 0" result="hardAlpha"/>
<feOffset dy="4"/>
<feGaussianBlur stdDeviation="2"/>
<feComposite in2="hardAlpha" operator="out"/>
<feColorMatrix type="matrix" values="0 0 0 0 0 0 0 0 0 0 0 0 0 0 0 0 0 0 0.1 0"/>
<feBlend mode="normal" in2="BackgroundImageFix" result="effect1_dropShadow_0_1"/>
<feBlend mode="normal" in="SourceGraphic" in2="effect1_dropShadow_0_1" result="shape"/>
</filter>
<filter id="filter1_d_0_1" x="-69" y="-68" width="240" height="1032" filterUnits="userSpaceOnUse" color-interpolation-filters="sRGB">
<feFlood flood-opacity="0" result="BackgroundImageFix"/>
<feColorMatrix in="SourceAlpha" type="matrix" values="0 0 0 0 0 0 0 0 0 0 0 0 0 0 0 0 0 0 127 0" result="hardAlpha"/>
<feOffset/>
<feGaussianBlur stdDeviation="2"/>
<feColorMatrix type="matrix" values="0 0 0 0 0 0 0 0 0 0 0 0 0 0 0 0 0 0 0.1 0"/>
<feBlend mode="normal" in2="BackgroundImageFix" result="effect1_dropShadow_0_1"/>
<feBlend mode="normal" in="SourceGraphic" in2="effect1_dropShadow_0_1" result="shape"/>
</filter>
<clipPath id="clip0_0_1">
<rect width="1440" height="1024" fill="white" transform="translate(-65 -64)"/>
</clipPath>
</defs>
</svg>

<?xml version="1.0" encoding="UTF-8" standalone="no"?>
<!DOCTYPE svg PUBLIC "-//W3C//DTD SVG 1.1//EN" "http://www.w3.org/Graphics/SVG/1.1/DTD/svg11.dtd">
<svg width="100%" height="100%" viewBox="0 0 102 122" version="1.1" xmlns="http://www.w3.org/2000/svg" xmlns:xlink="http://www.w3.org/1999/xlink" xml:space="preserve" xmlns:serif="http://www.serif.com/" style="fill-rule:evenodd;clip-rule:evenodd;stroke-linejoin:round;stroke-miterlimit:2;">
    <g id="Summary-user" serif:id="Summary user">
        <g id="join-logo">
            <rect id="Vector" x="50.497" y="0" width="22.158" height="25.492" style="fill:white;fill-rule:nonzero;"/>
            <path id="Vector_2" d="M50.497,46.225l22.158,0l0,35.953c0.101,8.651 -2.361,17.137 -7.073,24.379c-4.654,7.037 -13.636,15.409 -30.254,15.409c-18.102,-0 -28.652,-8.56 -34.345,-13.251l13.976,-17.241c5.557,4.537 10.909,8.269 20.454,8.269c7.227,0 10.107,-2.944 11.795,-5.512c2.294,-3.567 3.48,-7.739 3.409,-11.985l-0.12,-36.021Z" style="fill:white;fill-rule:nonzero;"/>
            <rect id="Vector_3" x="17.039" y="30.132" width="22.158" height="22.257" style="fill:rgb(41,171,226);fill-rule:nonzero;"/>
            <path id="Vector_4" d="M84.262,111.522c0,4.743 -2.403,7.293 -5.761,7.293c-3.358,-0 -5.556,-3.03 -5.556,-7.053c-0,-4.023 2.267,-7.208 5.744,-7.208c3.477,-0 5.573,3.133 5.573,6.968Zm-8.744,0.189c0,2.859 1.142,4.964 3.103,4.964c1.96,-0 3.068,-2.225 3.068,-5.136c-0,-2.551 -1.023,-4.947 -3.068,-4.947c-2.046,-0 -3.103,2.311 -3.103,5.119Z" style="fill:white;fill-rule:nonzero;"/>
            <rect id="Vector_5" x="86.205" y="104.76" width="2.454" height="13.833" style="fill:white;fill-rule:nonzero;"/>
            <path id="Vector_6" d="M91.319,118.593l-0,-13.833l2.727,0l2.931,5.701c0.755,1.491 1.427,3.022 2.012,4.588c-0.154,-1.712 -0.222,-3.681 -0.222,-5.872l0,-4.417l2.25,0l-0,13.833l-2.54,0l-2.965,-5.821c-0.785,-1.529 -1.485,-3.101 -2.097,-4.708c0,1.712 0.119,3.647 0.119,6.026l0,4.486l-2.215,0.017Z" style="fill:white;fill-rule:nonzero;"/>
        </g>
    </g>
</svg>
